svg/fluentui-system-icons/ic_fluent_speaker_mute_48_filled.svg

<svg width="48" height="48" viewBox="0 0 48 48" fill="none" xmlns="http://www.w3.org/2000/svg">
<path d="M25.081 6.41893C26.2076 5.40756 28 6.20715 28 7.7212V40.2797C28 41.7938 26.2077 42.5934 25.081 41.582L16.875 34.2157C16.0034 33.4333 14.8734 33.0005 13.702 33.0005H9C6.10051 33.0005 3.75 30.65 3.75 27.7505V20.2505C3.75 17.351 6.10051 15.0005 9 15.0005H13.702C14.8734 15.0005 16.0034 14.5677 16.875 13.7852L25.081 6.41893ZM32.3661 18.3666C32.8543 17.8784 33.6457 17.8784 34.1339 18.3666L38 22.2327L41.8661 18.3666C42.3543 17.8784 43.1457 17.8784 43.6339 18.3666C44.122 18.8547 44.122 19.6462 43.6339 20.1343L39.7678 24.0005L43.6339 27.8666C44.122 28.3547 44.122 29.1462 43.6339 29.6344C43.1457 30.1225 42.3543 30.1225 41.8661 29.6344L38 25.7682L34.1339 29.6344C33.6457 30.1225 32.8543 30.1225 32.3661 29.6344C31.878 29.1462 31.878 28.3547 32.3661 27.8666L36.2322 24.0005L32.3661 20.1343C31.878 19.6462 31.878 18.8547 32.3661 18.3666Z" fill="#212121"/>
</svg>

<svg xmlns="http://www.w3.org/2000/svg" width="48" height="48"><path d="M25.081 6.419C26.208 5.408 28 6.207 28 7.72v32.56c0 1.514-1.792 2.313-2.919 1.302l-8.206-7.366A4.75 4.75 0 0 0 13.702 33H9a5.25 5.25 0 0 1-5.25-5.25v-7.5C3.75 17.35 6.1 15 9 15h4.702a4.75 4.75 0 0 0 3.173-1.216l8.206-7.366Zm7.285 11.948a1.25 1.25 0 0 1 1.768 0L38 22.233l3.866-3.866a1.25 1.25 0 1 1 1.768 1.767L39.768 24l3.866 3.867a1.25 1.25 0 0 1-1.768 1.767L38 25.768l-3.866 3.866a1.25 1.25 0 0 1-1.768-1.767L36.232 24l-3.866-3.866a1.25 1.25 0 0 1 0-1.767Z"/></svg>
